X:1
T:Chengdu, 76.76 D
T:Chengdu, 76.76 D
T:James Ramsey Murray, 1866
T:Public Domain Courtesy of the Cyber Hymnal™
C:James Ramsey Murray, 1866
Z:Public Domain
Z:Courtesy of the Cyber Hymnal™
%%score ( 1 2 ) ( 3 4 )
L:1/8
Q:1/4=112
M:4/4
K:Bb
V:1 treble 
V:2 treble 
V:3 bass 
V:4 bass 
V:1
 [DF]2 | [DB]2 [FB]2 [Ec]2 [Fd]2 | [Ec]4 [EG]2 [Ec]2 | [DB]2 [FA]2 [EG]2 [EA]2 | [DB]6 [DF]2 | %5
 [DB]2 [FB]2 [Ec]2 [Fd]2 | [Ec]4 [EG]2 [Ec]2 | [DB]2 [FA]2 [EG]2 [EA]2 | [DB]6 [Fd]2 | %9
 [Fc]2 [FA]2 F2 [FA]2 | [Ec]4 [DB]2 [Fd]2 | [=Ed]2 [Ec]2 [EB]2 [EG]2 | F6 [EF]2 | %13
 [DB]2 [FB]2 [Ec]2 [Fd]2 | [Ec]4 [EG]2 [Ec]2 | [DB]2 [FA]2 [EG]2 [EA]2 | [DB]6 |] %17
V:2
 x2 | x8 | x8 | x8 | x8 | x8 | x8 | x8 | x8 | x4 F2 x2 | x8 | x8 | F6 x2 | x8 | x8 | x8 | x6 |] %17
V:3
 [B,,B,]2 | [B,,B,]2 [D,B,]2 [C,A,]2 [B,,B,]2 | [E,G,]4 [E,G,]2 [C,G,]2 | F,2 F,2 F,2 F,2 | %4
 [B,,F,]6 [B,,B,]2 | [B,,B,]2 [D,B,]2 [C,A,]2 [B,,B,]2 | [E,G,]4 [E,G,]2 [C,G,]2 | %7
 F,2 F,2 F,2 F,2 | [B,,F,]6 [B,,B,]2 | [F,A,]2 [F,C]2 [F,A,]2 [F,C]2 | [F,A,]4 [B,,B,]2 [B,,B,]2 | %11
 [C,G,]2 [C,G,]2 [C,G,]2 [C,B,]2 | [F,A,]6 [F,A,]2 | [B,,B,]2 [D,B,]2 [C,A,]2 [B,,B,]2 | %14
 [E,G,]4 [E,G,]2 [C,G,]2 | F,2 F,2 F,2 F,2 | [B,,F,]6 |] %17
V:4
 x2 | x8 | x8 | F,2 F,2 F,2 F,2 | x8 | x8 | x8 | F,2 F,2 F,2 F,2 | x8 | x8 | x8 | x8 | x8 | x8 | %14
 x8 | F,2 F,2 F,2 F,2 | x6 |] %17

